ubuntu-mono-dark/status/24/ubuntuone-client-offline.svg

<?xml version="1.0" encoding="UTF-8" standalone="no"?>
<!-- Created with Inkscape (http://www.inkscape.org/) -->
<svg
   xmlns:dc="http://purl.org/dc/elements/1.1/"
   xmlns:cc="http://creativecommons.org/ns#"
   xmlns:rdf="http://www.w3.org/1999/02/22-rdf-syntax-ns#"
   xmlns:svg="http://www.w3.org/2000/svg"
   xmlns="http://www.w3.org/2000/svg"
   xmlns:sodipodi="http://sodipodi.sourceforge.net/DTD/sodipodi-0.dtd"
   xmlns:inkscape="http://www.inkscape.org/namespaces/inkscape"
   version="1.0"
   width="24"
   height="24"
   id="svg3215"
   sodipodi:version="0.32"
   inkscape:version="0.46"
   sodipodi:docname="ubuntuone-client-offline.svg"
   inkscape:output_extension="org.inkscape.output.svg.inkscape">
  <metadata
     id="metadata8">
    <rdf:RDF>
      <cc:Work
         rdf:about="">
        <dc:format>image/svg+xml</dc:format>
        <dc:type
           rdf:resource="http://purl.org/dc/dcmitype/StillImage" />
      </cc:Work>
    </rdf:RDF>
  </metadata>
  <sodipodi:namedview
     inkscape:window-height="706"
     inkscape:window-width="640"
     inkscape:pageshadow="2"
     inkscape:pageopacity="0.0"
     guidetolerance="10.0"
     gridtolerance="10.0"
     objecttolerance="10.0"
     borderopacity="1.0"
     bordercolor="#666666"
     pagecolor="#ffffff"
     id="base"
     showgrid="false"
     inkscape:zoom="20.75"
     inkscape:cx="12"
     inkscape:cy="12"
     inkscape:window-x="1"
     inkscape:window-y="46"
     inkscape:current-layer="svg3215" />
  <defs
     id="defs3217" />
  <path
     d="M 13.5,4.4995523 C 11.823614,4.4811691 10.28622,5.534021 9.4375,6.9370523 C 7.940745,5.9142487 5.7421426,6.8073512 5.1835254,8.4733595 C 4.7269935,9.2601625 5.5313494,10.297623 4.4374069,10.60808 C 2.5648214,11.981885 1.94652,14.730814 3.0482883,16.772752 C 3.9315196,18.556365 5.9352251,19.648 7.9098,19.499552 C 10.901026,19.490169 13.893188,19.518555 16.883815,19.484929 C 19.363465,19.345859 21.487597,17.112636 21.498362,14.628289 C 21.581295,12.654726 20.2935,10.773171 18.5,9.9995523 C 18.554024,7.4738383 16.722815,4.8898413 14.137673,4.5441195 C 13.926507,4.5143613 13.713249,4.4995399 13.5,4.4995523 z"
     id="path3203"
     style="opacity:0.6;fill:none;fill-opacity:1;fill-rule:nonzero;stroke:#43423e;stroke-width:0.99999994;stroke-linecap:round;stroke-linejoin:miter;marker:none;marker-start:none;marker-mid:none;marker-end:none;stroke-miterlimit:4;stroke-dasharray:none;stroke-dashoffset:0;stroke-opacity:1;visibility:visible;display:inline;overflow:visible;enable-background:accumulate" />
  <path
     d="M 13.5,4.9995523 C 11.810544,4.9995523 10.363196,6.0620724 9.59375,7.5933023 C 9.1604803,7.2328966 8.6072,6.9995524 8,6.9995523 C 6.6200001,6.9995523 5.5000001,8.1195525 5.5,9.4995523 C 5.5,9.8094797 5.5530097,10.100595 5.65625,10.374552 C 4.0867423,11.075832 3,12.663584 3,14.499552 C 3,16.992552 5.007,18.999552 7.5,18.999552 L 16.5,18.999552 C 18.993,18.999552 21,16.992552 21,14.499552 C 21,12.524879 19.73127,10.858519 17.96875,10.249552 C 17.972663,10.164126 18,10.086053 18,9.9995523 C 18,7.2395523 15.984,4.9995523 13.5,4.9995523 z M 12,7.9995523 C 12.554,7.9995523 13,8.4455523 13,8.9995523 L 13,13.999552 C 13,14.553552 12.554,14.999552 12,14.999552 C 11.446,14.999552 11,14.553552 11,13.999552 L 11,8.9995523 C 11,8.4455523 11.446,7.9995523 12,7.9995523 z M 11.5,15.999552 L 12,15.999552 L 12.5,15.999552 C 12.777,15.999552 13,16.222552 13,16.499552 L 13,16.999552 L 13,17.499552 C 13,17.776552 12.777,17.999552 12.5,17.999552 L 12,17.999552 L 11.5,17.999552 C 11.223,17.999552 11,17.776552 11,17.499552 L 11,16.999552 L 11,16.499552 C 11,16.222552 11.223,15.999552 11.5,15.999552 z"
     id="rect3193"
     style="opacity:1;fill:#dfd8c8;fill-opacity:1;fill-rule:evenodd;stroke:none;stroke-width:1.69999993;stroke-linecap:round;stroke-linejoin:miter;marker:none;marker-start:none;marker-mid:none;marker-end:none;stroke-miterlimit:4;stroke-dasharray:none;stroke-dashoffset:0;stroke-opacity:1;visibility:visible;display:inline;overflow:visible;enable-background:accumulate" />
</svg>

<?xml version="1.0" encoding="UTF-8" standalone="no"?>
<!-- Created with Inkscape (http://www.inkscape.org/) -->

<svg
   xmlns:dc="http://purl.org/dc/elements/1.1/"
   xmlns:cc="http://creativecommons.org/ns#"
   xmlns:rdf="http://www.w3.org/1999/02/22-rdf-syntax-ns#"
   xmlns:svg="http://www.w3.org/2000/svg"
   xmlns="http://www.w3.org/2000/svg"
   xmlns:sodipodi="http://sodipodi.sourceforge.net/DTD/sodipodi-0.dtd"
   xmlns:inkscape="http://www.inkscape.org/namespaces/inkscape"
   version="1.0"
   width="24"
   height="24"
   id="svg3215"
   inkscape:version="0.48.0 r9654"
   sodipodi:docname="ubuntuone-client-offline.svg">
  <sodipodi:namedview
     pagecolor="#ffffff"
     bordercolor="#666666"
     borderopacity="1"
     objecttolerance="10"
     gridtolerance="10"
     guidetolerance="10"
     inkscape:pageopacity="0"
     inkscape:pageshadow="2"
     inkscape:window-width="1280"
     inkscape:window-height="753"
     id="namedview7"
     showgrid="false"
     inkscape:zoom="13.227273"
     inkscape:cx="11"
     inkscape:cy="11.793814"
     inkscape:window-x="0"
     inkscape:window-y="24"
     inkscape:window-maximized="1"
     inkscape:current-layer="svg3215" />
  <metadata
     id="metadata8">
    <rdf:RDF>
      <cc:Work
         rdf:about="">
        <dc:format>image/svg+xml</dc:format>
        <dc:type
           rdf:resource="http://purl.org/dc/dcmitype/StillImage" />
        <dc:title></dc:title>
      </cc:Work>
    </rdf:RDF>
  </metadata>
  <defs
     id="defs3217" />
  <path
     d="m 13.5,6.000001 c -1.689456,0 -3.136804,1.0625201 -3.90625,2.59375 C 9.1604803,8.2333453 8.6072,8.0000011 8,8.000001 c -1.3799999,0 -2.4999999,1.12 -2.5,2.5 0,0.309927 0.05301,0.601043 0.15625,0.875 C 4.0867423,12.07628 3,13.664032 3,15.5 3,17.993 5.007,20 7.5,20 l 9,0 c 2.493,0 4.5,-2.007 4.5,-4.5 0,-1.974673 -1.26873,-3.641032 -3.03125,-4.249999 0.0039,-0.08543 0.03125,-0.163499 0.03125,-0.25 0,-2.76 -2.016,-5 -4.5,-5 z m -1.5,3 c 0.554,0 1,0.446 1,1 L 13,15 c 0,0.554 -0.446,1 -1,1 -0.554,0 -1,-0.446 -1,-1 l 0,-4.999999 c 0,-0.554 0.446,-1 1,-1 z M 11.5,17 l 0.5,0 0.5,0 c 0.277,0 0.5,0.223 0.5,0.5 l 0,0.5 0,0.5 C 13,18.777 12.777,19 12.5,19 L 12,19 11.5,19 C 11.223,19 11,18.777 11,18.5 L 11,18 11,17.5 C 11,17.223 11.223,17 11.5,17 z"
     id="rect3193-5"
     style="opacity:0.3;fill:#000000;fill-opacity:1;fill-rule:evenodd;stroke:none;stroke-width:1.69999993;marker:none;visibility:visible;display:inline;overflow:visible;enable-background:accumulate"
     inkscape:connector-curvature="0" />
  <path
     d="m 13.5,4.9995526 c -1.689456,0 -3.136804,1.0625201 -3.90625,2.59375 C 9.1604803,7.2328969 8.6072,6.9995527 8,6.9995526 c -1.3799999,0 -2.4999999,1.1200002 -2.5,2.5000004 0,0.309927 0.05301,0.601042 0.15625,0.874999 C 4.0867423,11.075832 3,12.663584 3,14.499552 c 0,2.493 2.007,4.5 4.5,4.5 l 9,0 c 2.493,0 4.5,-2.007 4.5,-4.5 0,-1.974673 -1.26873,-3.641033 -3.03125,-4.25 C 17.97265,10.164122 18,10.086053 18,9.999553 18,7.2395526 15.984,4.9995526 13.5,4.9995526 z m -1.5,3 c 0.554,0 1,0.446 1,1 l 0,4.9999994 c 0,0.554 -0.446,1 -1,1 -0.554,0 -1,-0.446 -1,-1 l 0,-4.9999994 c 0,-0.554 0.446,-1 1,-1 z m -0.5,7.9999994 0.5,0 0.5,0 c 0.277,0 0.5,0.223 0.5,0.5 l 0,0.5 0,0.5 c 0,0.277 -0.223,0.5 -0.5,0.5 l -0.5,0 -0.5,0 c -0.277,0 -0.5,-0.223 -0.5,-0.5 l 0,-0.5 0,-0.5 c 0,-0.277 0.223,-0.5 0.5,-0.5 z"
     id="rect3193"
     style="fill:#dfdbd2;fill-opacity:1;fill-rule:evenodd;stroke:none;stroke-width:1.69999993;marker:none;visibility:visible;display:inline;overflow:visible;enable-background:accumulate"
     inkscape:connector-curvature="0" />
</svg>
